!!!OTL: 878. Abschied der Braut vom Elternhaus.
!!!ODT: 1835
!!!ARE: Europa, Mitteleuropa, Deutschland, Kuhlaendchen
!!!SCT: E0878
!!!TXL: @@DE
!!!YEM: Copyright 1995, estate of Helmut Schaffrath.
**kern	**text
*ICvox	*
*M2/4	*
*k[b-e-]	*
*g:	*
!LO:TX:a:t=Äolisch.	!
!LO:TX:a:t=Kuhländiſch. 1835.	!
{8d	Die
=1	=1
8d	Pferd
8b-/	han
8a	ro-
8g	-the
=2	=2
4a	Rie-
8dd}	-ma
{8dd	und_die
=3	=3
8cc	Rei-
8a	-ter
8b-/	ſil-
(16a	-ber-
16g)	-ne
=4	=4
4f	Sporn!
8r}	.
{8a	Schick
=5	=5
8a	dich,
8a	feins
8a	Mädle
8cc	und
=6	=6
4b-	ſchuh
8g}	dich!
{16b-L	von
16gJ	.
=7	=7
8f#	hin-
8f#	-nen
8d	wol-
16e	-len
16f#	wir
=8	=8
4g	fahr'n.
8r}	.
==	==
!!!AGN: Hochzeits -, Ehestands - Lied
!!!ONB: ESAC (Essen Associative Code) Database: ERK2
!!!AMT: simple duple
!!!AIN: vox
!!!EED: Helmut Schaffrath
!!!EEV: 1.0
!!!GTL: Hochzeits- und Ehrstandslieder, nebst Nonnenklagen
!!!URL-scan: https://rosdok.uni-rostock.de/mcrviewer/recordIdentifier/rosdok_ppn745177662/iview2/phys_0675.iview2?x=193.8995864193107&y=614.7138821622357&scale=0.7029437510502773&rotation=0&layout=singlePageLayout
!!!ENC: Anna Maria Matuszewska
!!!EEV: 2024/12/18
*-	*-
